assets/images/svg/carrot_24.svg

<svg width="24" height="24" viewBox="0 0 24 24" fill="none" xmlns="http://www.w3.org/2000/svg">
<path d="M19.5762 19.2508C15.3409 19.8846 8.2564 16.4964 6.44712 12.4745C4.54121 8.23782 9.22099 4.21432 13.2234 5.69812C16.3997 7.17903 20.8467 15.2259 19.5762 19.2508Z" fill="#36809D"/>
<ellipse cx="6.71792" cy="5.98008" rx="1.75214" ry="3.54577" transform="rotate(-39.9463 6.71792 5.98008)" fill="#D2F2CD"/>
<ellipse cx="7.81602" cy="4.88317" rx="1.75214" ry="3.54577" transform="rotate(-15.3079 7.81602 4.88317)" fill="#D2F2CD"/>
<ellipse cx="5.96401" cy="7.53903" rx="1.73665" ry="3.58778" transform="rotate(-70.1904 5.96401 7.53903)" fill="#D2F2CD"/>
<path d="M7.50552 7.36926L7.06172 7.36926C6.46492 7.27044 5.74739 6.86528 5.12772 6.22376C4.10188 5.16173 3.73272 3.85408 4.30318 3.30305C4.87365 2.75202 6.16771 3.16627 7.19356 4.2283C7.82653 4.8836 8.20949 5.63241 8.27597 6.23929L8.27597 6.65502" stroke="#1A1A1A" stroke-width="0.4"/>
<path d="M7.50552 7.36731L7.06172 7.36731C6.46492 7.26849 5.74739 6.86333 5.12772 6.2218C4.10188 5.15977 3.73272 3.85213 4.30318 3.3011C4.87365 2.75007 6.16771 3.16432 7.19356 4.22635C7.82653 4.88165 8.20949 5.63045 8.27597 6.23734L8.27597 6.65307" stroke="#1A1A1A" stroke-width="0.4"/>
<path d="M19.3707 15.6873C19.6432 16.9594 19.6852 18.1321 19.4213 19.0724C17.3736 19.3361 14.6486 18.6673 12.1918 17.4318C9.68314 16.1703 7.50695 14.3449 6.62951 12.3944C5.71735 10.3667 6.37586 8.39049 7.75684 7.08861C9.14028 5.78441 11.2288 5.17761 13.1462 5.88477C13.8988 6.23793 14.7467 6.99032 15.5803 8.0035C16.4133 9.01609 17.2194 10.2736 17.8885 11.6118C18.5577 12.9503 19.0871 14.3637 19.3707 15.6873Z" fill="#FCD497" stroke="#1A1A1A" stroke-width="0.4"/>
<path d="M6.02357 3.36615C5.91279 2.49169 6.23717 1.88047 6.76348 1.6474C7.52292 1.31109 8.62324 2.13295 9.22112 3.48307C9.57826 4.28957 9.67533 5.10213 9.53371 5.69742L9.38393 6.2065" stroke="#1A1A1A" stroke-width="0.4"/>
<path d="M10.8941 10.3617L14.2822 6.95508M14.5525 14.3388L17.506 11.3853M10.8941 13.5381L9.38391 15.0772M15.7645 16.9263L14.5525 18.0307" stroke="#1A1A1A" stroke-width="0.4" stroke-linecap="round"/>
<path d="M4.54111 5.53174L4.39471 5.53174C3.51084 5.42368 2.77537 5.66314 2.55618 6.19399C2.24901 6.93793 3.07215 7.9837 4.39471 8.52979C5.06183 8.80524 5.72858 8.90094 6.26503 8.83267L6.44694 8.83267" stroke="#1A1A1A" stroke-width="0.4"/>
</svg>

<svg xmlns="http://www.w3.org/2000/svg" width="24" height="24" fill="none">
    <path fill="#36809D"
        d="M19.58 19.25c-4.24.63-11.32-2.75-13.13-6.78-1.9-4.23 2.77-8.26 6.77-6.77 3.18 1.48 7.63 9.53 6.36 13.55Z" />
    <ellipse cx="6.72" cy="5.98" fill="#D2F2CD" rx="1.75" ry="3.55"
        transform="rotate(-40 6.72 5.98)" />
    <ellipse cx="7.82" cy="4.88" fill="#D2F2CD" rx="1.75" ry="3.55"
        transform="rotate(-15 7.82 4.88)" />
    <ellipse cx="5.96" cy="7.54" fill="#D2F2CD" rx="1.74" ry="3.59"
        transform="rotate(-70 5.96 7.54)" />
    <path stroke="#1A1A1A" stroke-width=".4"
        d="M7.5 7.37h-.44c-.6-.1-1.31-.5-1.93-1.15C4.1 5.16 3.73 3.85 4.3 3.3c.57-.55 1.87-.13 2.9.93a3.7 3.7 0 0 1 1.08 2v.43" />
    <path stroke="#1A1A1A" stroke-width=".4"
        d="M7.5 7.37h-.44c-.6-.1-1.31-.5-1.93-1.15C4.1 5.16 3.73 3.85 4.3 3.3c.57-.55 1.87-.14 2.9.93a3.7 3.7 0 0 1 1.08 2v.42" />
    <path fill="#FCD497" stroke="#1A1A1A" stroke-width=".4"
        d="M19.37 15.69c.27 1.27.32 2.44.05 3.38-2.05.27-4.77-.4-7.23-1.64-2.5-1.26-4.68-3.09-5.56-5.04-.91-2.02-.25-4 1.13-5.3a5.28 5.28 0 0 1 5.39-1.2c.75.35 1.6 1.1 2.43 2.11a19.54 19.54 0 0 1 3.8 7.69Z" />
    <path stroke="#1A1A1A" stroke-width=".4"
        d="M6.02 3.37c-.1-.88.22-1.49.74-1.72.76-.34 1.86.48 2.46 1.83.36.81.46 1.62.31 2.22l-.15.5" />
    <path stroke="#1A1A1A" stroke-linecap="round" stroke-width=".4"
        d="m10.9 10.36 3.38-3.4m.27 7.38 2.96-2.95m-6.62 2.15-1.5 1.54m6.37 1.85-1.2 1.1" />
    <path stroke="#1A1A1A" stroke-width=".4"
        d="M4.54 5.53H4.4c-.88-.1-1.61.13-1.83.66-.31.75.51 1.8 1.83 2.34a3.8 3.8 0 0 0 1.88.3h.18" />
</svg>
